X:1
T:La Mirada, 76.76.76 D
T:La Mirada, 76.76.76 D
T:Daniel Brink Towner, 1899
T:Public Domain Courtesy of the Cyber Hymnal™
C:Daniel Brink Towner, 1899
Z:Public Domain
Z:Courtesy of the Cyber Hymnal™
%%score ( 1 2 ) ( 3 4 )
L:1/8
Q:1/4=110
M:4/4
K:A
V:1 treble 
V:2 treble 
V:3 bass 
V:4 bass 
V:1
 [CE]2 | [A,C]2 [CE]2 [CA]2 [CE]2 | ([Ec]3 [DB]) [CA]2 [EA]2 | [FA]3 [DF] [FA]2 [DF]2 | %4
 [CE]6 [CE]2 | [DE]2 [DF]2 [DA]2 [DE]2 | ([Ec]3 [DB]) [CA]2 [CA]2 | [EG]2 [EB]2 [^DF]3 [DB] | %8
 B6 [CE]2 | [A,C]2 [CE]2 [CA]2 [CE]2 | ([Ec]3 [DB]) [CA]2 [EA]2 | [FA]3 [DF] [FA]2 [DF]2 | %12
 [CE]6 [CE]2 | [Ee]3 [Ec] [EA]2 E2 | [EG] [DF]4- [DF] [^B,F]2 | [CE]2 [Ed]2 [Ec]3 [DB] | [CA]6 E2 | %17
 [DG]2 [DE]2 [DB]2 [DE]2 | ([Ec]3 [DB]) [CA]2 [EG]2 | [DF]3 [DB] [^DB]2 [DA]2 | [EG]6 E2 | %21
 [Ee]3 [Ec] [EA]2 E2 | [EG] [DF]4- [DF] [^B,F]2 | [CE]2 [Ed]2 [Ec]3 [DB] | [CA]6 |] %25
V:2
 x2 | x8 | x8 | x8 | x8 | x8 | x8 | x8 | (E4 D2) x2 | x8 | x8 | x8 | x8 | x6 E2 | x8 | x8 | x6 E2 | %17
 x8 | x8 | x8 | x6 E2 | x6 E2 | x8 | x8 | x6 |] %25
V:3
 [A,,A,]2 | [A,,A,]2 [A,,A,]2 [A,,A,]2 [A,,A,]2 | [A,,A,]4 [A,,E,]2 [C,A,]2 | %3
 [D,A,]3 [D,A,] [D,A,]2 [D,A,]2 | [A,,A,]6 [A,,A,]2 | [E,G,]2 [E,B,]2 [E,E]2 [E,B,]2 | %6
 [A,,A,]4 [A,,E,]2 [A,,E,]2 | [B,,E,]2 [B,,G,]2 [B,,B,]3 [B,,A,] | [E,G,]6 [A,,A,]2 | %9
 [A,,A,]2 [A,,A,]2 [A,,A,]2 [A,,A,]2 | [A,,A,]4 [A,,E,]2 [C,A,]2 | [D,A,]3 [D,A,] [D,A,]2 [D,A,]2 | %12
 [A,,A,]6 A,2 | [A,C]3 A, [A,C]2 [C,A,]2 | [D,A,] [D,A,]4- [D,A,] [^D,A,]2 | %15
 [E,A,]2 [E,B,]2 [E,A,]3 [E,G,] | [A,,A,]6 [E,G,]2 | [E,B,]2 [E,B,]2 [E,G,]2 [E,G,]2 | %18
 [A,,A,]4 [A,,E,]2 [C,A,]2 | [D,A,]3 [D,F,] [B,,F,]2 [B,,B,]2 | [E,B,]6 [E,D]2 | %21
 [A,C]3 A, [A,C]2 [C,A,]2 | [D,A,] [D,A,]4- [D,A,] [^D,A,]2 | [E,A,]2 [E,B,]2 [E,A,]3 [E,G,] | %24
 [A,,A,]6 |] %25
V:4
 x2 | x8 | x8 | x8 | x8 | x8 | x8 | x8 | x8 | x8 | x8 | x8 | x6 A,2 | x3 A, x4 | x8 | x8 | x8 | %17
 x8 | x8 | x8 | x8 | x3 A, x4 | x8 | x8 | x6 |] %25

